X:4
T:Fathom the bowl
C:Taken down from Robt. Hard, Sth. Brent, Oct. 1888, by H.F.S.  
%%VWML:SBG-1-1-86-0
F:http://www.vwml.org/record/SBG/1/1/86
Z:Original Sibleius Transcription by Martin and Shan Graebe
M:3/8
L:1/8
K:D
A/G/ | FGA | dcB | AAG | F2 D | FGA | Bcd | edc | d2 d/d/ |ffe | ddA |
 dde | f2 e | ddc | Bcd | AAG |FE D/D/ |FGA | Bcd | edc | d2z||
T:Fathom the bowl 
T:Sent me by H. Whitfeld, Brushmaker, Market Alley, Plymth. as sung by his Grandfather.
M:6/8
L:1/8
K:C
G | cBc GEG | G>GF DC2 | G>AF> cB>G | Bdc BG2 | 
G>GA BcG |G>Gc/ G/E F2 | E>DC EGc/A/ | dGAB !fermata!c2 ||
P:Chorus
z2G2G D|E2(F2 E2) |G2 (A2  d2)| c cBdc!fermata!B|
w:I'll fa-thom the bo-wl, I'll Fa-thom I'll fa-th -om
G3G !fermata!c2|d2e2 cA|F2G2 A2|B2!fermata!c4 |
w:O give me ye Punch lad-le I'll fa-thon ye Bowl
T:Fathom the bowl
T:Sent me by Lucy E Broadwood, Lyne, Rusper, Horsham as sung in Sussex. 
T:See her “Sussex Songs” Stanley Lucas, & 1ọ  1890  No. 20
M:3/4
L:1/8
K:C
G2 | c2 B2 c2 | G2 [F2A2] D2 | GA G2 E2 | C4 e2 | d2 B2 A2 | G2 d2 c2 | B2 c2 A2 | G4 GG | c2 e2 c2 |
d2 B2 G2 | c2 A2 F2 | !fermata!(3EFE !fermata!D3 D |E3 F G2 | A2 d3 c |B3A B2 | c4 G2 | G2 D3 E|
F4 G2 | G2 E3 F| G6 | A2 dc BA |!fermata!G4 G2 |c3 d e2| f2 d2  c2| B3 A B2| c4> ||
T:Fathom the bowl 
T:Jones, Bardic Relics, 1794. I. p. 144  “Glân meddwdad mwyn”. “Good humoured & fairly tipsy.
M:3/4
L:1/8
K:C
C4 | E2 F2 G2 | c2 B2 A2 | G3 AGF | E4 C2 | E2 F2 G2 | A2 B2 c2 | d2 c2 B2 |c4:|
cd  e2 e2 d2 |c4 B2 | c2 ce df | (e4 d2) | c2 c>dB>c | A2 A>BG>A |
FEFAGF|EFEDC2|E2F2G2|A2B2c2|d>ec2B2|c6||
